X: 4530
T: Boreland Bus, The
R: reel
M: 4/4
K: Gmajor
G2 B2 ABcA|GABG AFDF|G2 B2 ABcA|dBGB c2 BA|
G2 B2 ABcA|GABG AFDF|GABG EGce|dBcA BG G2||
dgfg dBGB|dgfg e2 e2|dgfg dBGB|cABG E2 G2|
dgfg dBGB|dgfg e2 e2|defd gdBG|EGFA G4||

